X:1
T:We Thank Thee, Our Father
T:We Thank Thee, Our Father
T:Charles Hutchinson Gabriel
T:Daniel Alfred Poling, 1917
T:Public Domain Courtesy of the Cyber Hymnal™
T:Public Domain Courtesy of the Cyber Hymnal™
C:Charles Hutchinson Gabriel
Z:Public Domain
Z:Courtesy of the Cyber Hymnal™
%%score ( 1 2 ) ( 3 4 )
L:1/8
Q:1/4=110
M:4/4
K:Eb
V:1 treble 
V:2 treble 
V:3 bass 
V:4 bass 
V:1
 [EG]2 [FA]2 | (B2 e2) [^Fd]2 [Fc]2 | B4 [DF]2 [EG]2 | A4 [FB]2 [DA]2 | [EG]4 [EG]2 [=EG]2 | %5
w: 1.~For the|fruits * of the|earth, And the|sky and the|sea, For the|
w: 2.~For the|touch * of wee|hands, In the|ten- der ca-|ress, For the|
w: 3.~For the|toil * of our|hands, For the|task that com-|mands, For the|
 [FA]4 [E=A]2 [EA]2 | [EB]4 [Ec]2 [Ee]2 | [Fd]4 [Ec]2 [Ec]2 | [DB]4 [Ac]2 [Ad]2 | e4 [Ed]2 [Ac]2 | %10
w: boun- ti- ful|har- vests So|won- drous- ly|free, For the|gold of the|
w: lips of the|fair- est, And|dear- est we|press, For the|strength of our|
w: field that is|white Un- to|har- vest de-|mands, For the|hope of the|
 [GB]4 [Gc]2 [=EG]2 | [FA]4 [FB]2 [DF]2 | [EG]4 [EG]2 [EG]2 | [GB]4 [D=A]2 [DG]2 | %14
w: au- tumn, The|sear and the|brown, For the|bloom of the|
w: fa- thers, Whose|vi- gor we|share, For the|faith of our|
w: tri- umph Of|peace o’er the|sword, For the|Son of High|
 [^Fd]4 [=Ad]2 [Fe]2 | (d2 c2) [=FB]2 [D=A]2 | [DG]4 [DG]2 [DG]2 | A4 [FA]2 [EA]2 | %18
w: flow- er When|win- * ter is|flown, For the|work and the|
w: mo- thers, For|love * that they|bear— For the|friends of tried|
w: Heav- en, Our|Sav- * ior and|Lord, For the|crown that He|
 ([Dd]2 [Ac]2) [GB]2 [FA]2 | [EG]4 [EG]2 [FB]2 | [Ee]6 ||"^Refrain" [Ee]2 | [Fe]4 [Fd]2 [Fc]2 | %23
w: play, * For the|night and the|day,|||
w: worth, * For the|land of our|birth,|We|thank Thee, our|
w: wore, * For the|cross that He|bore,|||
 [Af]4 !fermata![AB]2 [FB]2 | e4 [Ge]2 [F=B]2 | [Ec]6 [=EG]2 | [FA]4 [FB]2 [DF]2 | %27
w: ||||
w: Fa- ther, Yea,|praise and ex-|tol; We|thank Thee, our|
w: ||||
 [FA]4 [EG]2 [EG]2 |"^riten." [FG]4 [DF]3 [B,E] | [B,E]4 |] %30
w: |||
w: Fa- ther, Great|God of us|all.|
w: |||
V:2
 x4 | G4 x4 | (G2 E2) x4 | (D2 C2) x4 | x8 | x8 | x8 | x8 | x8 | (G2 E2) x4 | x8 | x8 | x8 | x8 | %14
 x8 | ^F4 x4 | x8 | (D2 G2) x4 | x8 | x8 | x6 || x2 | x8 | x8 | (E2 A2) x4 | x8 | x8 | x8 | x8 | %29
 x4 |] %30
V:3
 [E,B,]2 [E,B,]2 | (E2 B,2) [E,=A,]2 [E,C]2 | E4 [A,B,]2 [A,B,]2 | B,4 [D,B,]2 [B,,B,]2 | %4
 [E,B,]4 [E,B,]2 [C,C]2 | [F,C]4 [^F,C]2 [F,C]2 | [G,B,]4 [G,E]2 [_G,B,]2 | %7
 (B,2 =A,2) [F,G,]2 [F,A,]2 | [B,,B,]4 [B,D]2 B,2 | (B,2 G,2) (A,B,) (CD) | %10
 (E2 _D2) [=E,C]2 [C,C]2 | [F,C]2 [E,_C]2 [D,B,]2 [B,,B,]2 | [E,B,]4 [E,C]2 [E,^C]2 | %13
 [D,D]4 [D,C]2 [D,B,]2 | [D,=A,]4 [D,C]2 [D,A,]2 | [D,D]4 [D,D]2 [D,C]2 | [G,B,]4 [G,B,]2 [G,B,]2 | %17
 B,4 [D,B,]2 [C,B,]2 | [B,,B,]4 [C,B,]2 [D,B,]2 | [E,B,]4 [E,B,]2 [A,D]2 | [G,B,]6 || [_G,B,]2 | %22
 [F,C]4 [G,E]2 [=A,E]2 | [B,D]4 !fermata![B,,D]2 [A,D]2 | B,4 [E,B,]2 [D,G,]2 | [C,G,]6 [C,C]2 | %26
 [F,C]2 [E,_C]2 [D,B,]2 [B,,B,]2 | [E,B,]4 [E,C]2 [E,_D]2 | [A,,C]4 [B,,A,]3 [B,,A,] | [E,G,]4 |] %30
V:4
 x4 | E,4 x4 | (E,2 G,2) x4 | (F,2 E,2) x4 | x8 | x8 | x8 | F,4 x4 | x6 B,2 | E,4 E,2 E,2 | %10
 =E,4 x4 | x8 | x8 | x8 | x8 | x8 | x8 | (F,2 E,2) x4 | x8 | x8 | x6 || x2 | x8 | x8 | G,2 F,2 x4 | %25
 x8 | x8 | x8 | x8 | x4 |] %30

